public/illustrations/truck.svg

<svg width="329" height="190" viewBox="0 0 329 190" fill="none" xmlns="http://www.w3.org/2000/svg">
<path d="M212.721 158.262C211.885 161.462 211.376 164.266 210.456 166.885C205.84 180.01 196.523 187.91 182.903 189.496C170.429 190.898 159.64 185.617 152.971 173.285C151.017 169.434 149.786 165.356 149.559 161.08C148.851 161.023 148.016 160.811 147.308 160.754L126.962 161.08C123.691 161.094 120.265 161.25 117.008 161.264L96.9737 161.335C94.7083 161.292 94.6942 161.434 93.788 163.77C89.3988 177.476 80.1674 186.24 65.8814 188.916C49.8538 192.017 33.4438 182.573 29.7484 165.087C29.6493 164.506 29.5645 163.798 29.4795 163.076C28.63 163.006 27.8089 162.652 26.8178 162.581L14.542 161.575C11.7245 161.349 8.93545 160.698 6.28778 160.046C5.43826 159.976 4.75837 159.636 4.2345 159.027C3.71063 158.56 3.20106 157.809 2.96036 157.215C2.49313 156.04 2.16756 154.737 1.9835 153.59C0.624266 145.803 0.42592 137.831 0.0861126 129.86C-0.197061 122.88 0.227768 115.957 1.21887 109.075C2.80464 96.5593 8.35481 86.0819 18.8889 78.8327C23.2639 75.7745 27.7664 72.7304 32.3963 69.9836C41.5286 64.3343 49.9103 57.2125 56.9613 49.1138C59.9347 45.6591 63.5878 42.6999 67.4956 40.1655C73.3148 36.6683 79.8984 36.2012 86.4256 36.1729C102.467 36.3428 118.523 37.9427 134.466 39.3727C141.517 39.9532 148.554 40.8027 155.591 41.6664C159.952 42.1619 164.1 43.6343 167.895 45.8006C171.151 47.6271 173.926 50.2748 175.639 53.6729C177.239 56.6462 178.995 59.492 180.468 62.4511C184.701 71.456 192.219 78.6061 201.422 82.4856C211.829 87.3136 222.773 90.6126 234.001 92.3824L243.558 93.7276C244.974 93.8409 246.348 94.3789 247.409 95.3133C248.471 96.2478 249.222 97.4512 249.533 98.8953C250.156 101.784 250.624 104.672 250.822 107.518C251.261 114.371 251.685 121.365 251.983 128.204C252.294 134.901 252.308 141.583 252.337 148.266C252.266 152.67 250.071 155.19 245.625 155.671C239.608 156.323 233.605 156.677 227.602 157.186C222.604 157.484 217.875 157.951 212.877 158.404L212.749 158.248L212.721 158.262ZM216.813 99.3485L213.231 97.9185C208.133 95.9363 202.881 94.2373 197.812 91.9719C185.99 87.1722 176.347 78.1531 170.896 66.628C169.806 64.2635 168.418 62.1681 167.187 59.931C166.082 57.8497 164.525 56.0232 162.514 54.579C160.49 53.2764 158.295 52.3844 155.888 52.1861C150.564 51.3225 145.212 50.7421 139.86 50.1757C133.503 49.6519 127.302 49.1562 120.959 48.4908C108.57 47.2023 96.1243 46.4662 83.6364 46.2963C80.6772 46.0556 77.6473 46.6644 74.8581 47.7121C72.0688 48.7599 69.5203 50.4021 67.5098 52.5118C66.4338 53.5595 65.3435 54.7489 64.2533 55.7966C58.3349 62.1397 52.1474 68.4402 44.9265 73.3957C39.2205 77.1902 33.6564 80.999 27.823 84.5103C23.0374 87.3845 19.0305 91.3205 16.0996 95.9079C13.1546 100.637 11.4554 105.904 10.9882 111.539C10.0962 122.54 10.0396 133.626 10.9882 144.642C11.2572 146.652 11.5123 148.663 11.9229 150.546L28.8566 151.919C29.3097 151.537 29.4653 151.396 29.4653 151.396C29.4936 150.971 29.6919 150.418 29.876 149.866C32.1272 141.385 37.564 134.009 44.9123 129.209C53.6057 123.673 62.9791 121.875 72.8335 124.806C77.2793 126.023 81.4985 128.359 84.7975 131.46C88.238 134.575 90.7439 138.624 92.3721 143.014C93.2925 145.647 94.0713 148.266 94.9916 151.042C113.497 150.56 131.804 150.772 149.885 150.263C155.322 134.079 165.898 124.579 182.931 124.834C197.543 125.032 206.463 134.136 211.461 147.757C221.584 147.304 231.594 146.412 241.633 145.378C241.506 138.27 241.491 131.446 240.755 124.707C239.622 124.622 238.773 124.551 237.952 124.197C235.29 123.701 232.798 122.923 230.178 122.002C226.865 120.742 224.062 118.661 221.868 115.928C219.673 113.196 218.229 109.953 217.804 106.498C217.422 104.191 217.039 101.897 216.671 99.4475L216.827 99.3202L216.813 99.3485ZM84.4293 156.748L84.486 156.04C85.9585 141.527 72.4934 132.338 61.5487 134.136C50.6041 135.948 43.723 141.923 40.3249 152.288C38.994 156.436 39.0507 160.995 40.4241 165.087C43.6806 175.72 54.6963 180.024 62.5968 178.962C73.0742 177.688 83.6929 167.607 84.2876 156.861L84.4435 156.733L84.4293 156.748ZM202.13 155.686C202.102 150.858 200.488 146.171 197.387 142.376C195.589 139.955 193.069 137.902 190.322 136.685C187.448 135.311 184.375 134.773 181.374 134.957C175.668 135.198 170.344 137.747 166.45 141.98C159.329 149.215 157.884 161.731 162.911 169.674C166.818 175.819 172.34 179.387 179.462 179.26C191.256 179.231 200.969 169.787 202.272 155.544L202.116 155.671L202.13 155.686ZM239.792 113.734C240.486 110.52 240.33 107.107 239.594 103.922C236.507 103.384 233.435 102.846 230.349 102.322L228.508 102.166C228.508 109.274 231.127 111.893 239.792 113.592V113.734Z" fill="#102185"/>
<path d="M305.573 117.104C305.262 117.5 305.205 118.066 305.035 118.477C304.172 125.655 303.166 132.678 302.303 139.842C301.326 148.422 300.207 156.861 299.216 165.441C298.876 169.533 298.551 173.625 298.211 177.716C298.055 179.557 297.616 181.497 297.191 183.309C296.356 186.509 294.501 188.35 291.245 188.364C285.412 188.463 279.635 187.84 274.056 186.537C273.079 186.311 272.272 185.829 271.621 185.065C270.97 184.3 270.474 183.408 270.417 182.403C270.233 181.115 270.063 179.812 270.162 178.552C271.125 168.542 272.201 158.687 273.306 148.691L276.661 116.155L276.902 113.196C275.302 111.936 273.589 112.077 271.89 111.936C265.957 111.454 264.131 109.458 263.154 102.279L263.409 99.1788C264.669 83.661 265.802 68.1147 266.906 52.7243C268.01 39.1746 268.69 25.5965 269.653 12.0326C269.865 9.49817 270.346 6.978 271.125 4.48609C271.507 3.24013 272.173 2.14995 273.065 1.51282C273.985 0.734095 275.302 0.280971 276.435 0.224337C278.87 -0.00220087 281.291 -0.0870902 283.684 0.11113C293.284 0.889853 302.883 1.66845 312.469 2.46133C315.994 2.7445 319.647 3.32503 323.144 3.90554C326.655 4.47188 329.643 7.8416 328.652 11.3105C327.958 14.5245 327.547 17.8943 327.42 21.1508C326.047 37.9429 324.688 54.7349 323.031 71.5128C321.983 84.3547 320.525 97.0267 319.194 109.84C319.095 111.115 318.84 112.375 318.458 113.62C318.217 114.881 317.551 115.957 316.518 116.594C315.456 117.358 314.295 117.698 313.035 117.443L305.276 116.806L305.531 117.118L305.573 117.104ZM273.702 101.996C279.889 102.789 285.482 103.95 291.273 104.276C297.064 104.743 302.727 106.626 309.014 106.286C309.368 103.61 310.005 101.104 310.217 98.5699C312.143 76.709 314.069 54.8482 315.994 32.9873C316.348 28.6123 316.985 24.2656 317.481 20.0322L317.976 13.9581C317.566 13.7882 317.297 13.6183 316.872 13.59C307.017 12.4998 297.163 11.4096 287.436 10.4751C285.043 10.2769 282.75 10.376 280.47 10.6167C277.851 41.086 275.939 71.4704 274.014 101.996L273.73 101.968L273.702 101.996ZM287.422 114.909C286.558 122.087 285.709 128.969 284.859 135.864C284.151 142.773 283.472 149.385 282.919 156.167C282.367 162.949 280.81 169.773 280.654 177.009C283.075 176.924 285.128 177.943 287.323 177.122C287.365 176.555 287.408 175.989 287.592 175.579C288.555 165.427 289.517 155.417 290.622 145.279C291.542 137.534 292.873 129.832 293.935 121.974C294.105 119.85 294.855 117.642 293.907 115.433L287.139 114.881L287.422 114.909Z" fill="#102185"/>
<path d="M66.2782 107.546L64.0268 107.362C59.7651 107.306 57.6839 104.998 58.1653 100.779C58.5759 97.4088 59.2981 93.9117 59.9918 90.5561C60.7564 86.351 61.5208 82.3016 62.2854 78.0965C62.7809 75.5763 63.1208 73.0561 63.7579 70.55C64.0269 69.0067 64.9757 67.8031 66.0376 66.897C67.2411 66.005 68.6994 65.5519 70.2569 65.6794C74.377 65.736 78.483 65.7785 82.6032 65.8351C88.4224 65.8776 94.1142 65.7785 99.9334 65.8351C103.912 65.8776 107.876 65.9202 111.855 65.9485C117.518 66.1325 123.196 66.3023 128.732 66.3306C137.949 66.5147 147.181 66.5572 156.412 66.5997C160.957 66.6847 163.605 69.0349 163.803 73.594C164.03 77.7283 164.115 82.0043 164.327 86.2802C164.454 89.9897 164.724 93.6993 164.837 97.4088C164.851 98.9663 164.865 100.538 164.738 102.095C164.412 106.045 162.415 108.014 158.281 108.098C155.718 108.169 153.156 108.254 150.607 108.184C146.062 108.099 141.673 108.028 137.114 108.084C128.874 108.127 120.775 108.169 112.534 108.212C108.839 108.198 105.144 108.183 101.321 108.155C92.6699 108.014 83.8775 107.872 75.2124 107.73C72.2249 107.773 69.2375 107.815 66.4057 107.73L66.2782 107.575V107.546ZM104.323 76.4115L73.1169 75.8595C71.8002 83.2786 70.5259 90.2728 69.2091 97.7061L76.4582 97.7345C83.2827 97.7345 90.0931 97.7061 96.776 97.6919C99.0414 97.7344 99.7917 97.2247 100.259 94.9876C101.151 91.0798 101.873 87.3137 102.765 83.406C103.218 81.3105 103.671 79.2149 104.323 76.4257V76.4115ZM154.161 97.6636C153.892 90.5418 153.58 83.8307 153.283 76.9921L130.573 76.709C129.015 83.6892 127.472 90.3719 126.042 97.5079L154.161 97.6636ZM119.94 76.5391C118.807 76.4541 118.099 76.3833 117.391 76.4682C116.683 76.5532 115.664 76.7514 114.942 76.8364C113.965 80.1636 113.115 83.6467 112.534 87.158C112.124 90.5278 110.439 93.671 110.991 97.4088L115.111 97.4653C116.825 90.3577 118.368 83.6609 119.94 76.5533V76.5391Z" fill="#102185"/>
<path d="M304.879 88.9137C304.256 96.531 297.8 102.548 290.338 101.798C283.018 101.062 277.737 96.0779 278.148 87.5969C278.304 85.7562 278.728 83.9439 279.422 82.4431C280.272 80.8007 281.376 79.3425 282.75 78.1674C284.123 77.0063 285.751 76.1426 287.507 75.5762C289.262 75.0099 290.976 74.8683 292.802 75.0098C294.501 75.1514 296.172 75.5622 297.658 76.3975C299.159 77.0913 300.49 78.1957 301.665 79.569C302.841 80.8008 303.577 82.2874 304.143 84.0289C304.724 85.6429 304.865 87.3562 304.724 89.0552L304.879 88.9278V88.9137ZM294.275 88.3331C294.416 86.6341 293.524 85.2891 292.264 85.19C291.415 85.1192 290.678 85.4872 289.928 85.9969C289.319 86.5208 288.824 87.3279 288.625 88.0217C288.569 88.7296 288.795 89.4516 289.163 90.0604C289.531 90.6693 290.225 90.995 290.919 91.1932C291.768 91.264 292.491 91.0374 293.255 90.3861C293.864 89.8622 294.218 89.0411 294.289 88.1916V88.3331H294.275Z" fill="#102185"/>
<path d="M282.141 55.9521C282.226 53.1204 283.302 50.3595 285.186 48.2499C287.069 46.1403 289.73 44.7809 292.463 44.4411C294.898 44.2146 297.277 44.5543 299.627 45.4463C301.822 46.3383 303.832 47.9241 305.39 49.7506C307.457 52.3275 308.462 55.683 308.193 58.9253C307.924 62.1677 306.253 65.2967 303.804 67.378C298.013 72.1636 291.288 71.0451 286.389 66.6701C284.93 65.4099 283.642 63.7535 282.948 61.8421C282.255 59.9448 281.985 57.9343 282.155 55.9521H282.141ZM295.012 54.876L294.162 54.8053C293.879 54.777 293.581 55.0459 293.426 55.1733C293.27 55.3007 292.973 55.5557 292.944 55.8389C292.916 56.122 292.76 56.391 292.874 56.6883C292.817 57.3963 292.902 58.1041 293.284 58.5714C293.667 59.166 294.346 59.5059 295.04 59.7041L295.889 59.7748C296.172 59.8031 296.47 59.6759 296.625 59.4069C296.923 59.2936 297.079 59.0244 297.249 58.7413C297.277 58.4581 297.433 58.1892 297.603 57.9201L297.687 56.7874C297.716 56.5042 297.461 56.0653 297.206 55.7538C296.951 55.4423 296.682 55.1451 296.413 54.9752C296.144 54.8053 295.734 54.6354 295.309 54.6071L294.997 54.8618L295.012 54.876Z" fill="#102185"/>
<path d="M310.642 28.7261C310.684 35.1258 304.213 41.4122 296.596 40.7892C293.212 40.5202 290.069 38.9769 287.705 36.5133C285.354 33.9081 284.207 30.6941 284.335 27.2961C285.198 20.2592 291.358 14.3692 298.239 15.3603C305.686 16.3939 311.293 20.8256 310.514 28.5845L310.642 28.7403V28.7261ZM300.051 28.004L300.122 27.1545C300.15 26.8713 299.881 26.574 299.754 26.4182C299.64 26.1209 299.371 25.9652 299.088 25.9369L298.239 25.866C296.54 25.7244 295.336 26.6306 295.223 28.0323C295.18 28.5987 295.407 29.1792 295.803 29.6464C296.186 30.0995 296.596 30.4251 297.163 30.4676C297.871 30.5242 298.592 30.2976 299.06 29.9154C299.654 29.5331 299.994 28.8535 300.051 28.1455V28.004Z" fill="#102185"/>
</svg>

<svg xmlns="http://www.w3.org/2000/svg" width="329" height="190" fill="none" viewBox="0 0 329 190"><path fill="#102185" d="M212.721 158.262c-.836 3.2-1.345 6.004-2.265 8.623-4.616 13.125-13.933 21.025-27.553 22.611-12.474 1.402-23.263-3.879-29.932-16.211-1.954-3.851-3.185-7.929-3.412-12.205-.708-.057-1.543-.269-2.251-.326l-20.346.326c-3.271.014-6.697.17-9.954.184l-20.034.071c-2.266-.043-2.28.099-3.186 2.435-4.39 13.706-13.62 22.47-27.907 25.146-16.027 3.101-32.437-6.343-36.133-23.829-.099-.581-.184-1.289-.268-2.011-.85-.07-1.671-.424-2.662-.495l-12.276-1.006c-2.817-.226-5.607-.877-8.254-1.529-.85-.07-1.53-.41-2.054-1.019-.523-.467-1.033-1.218-1.274-1.812-.467-1.175-.792-2.478-.976-3.625-1.36-7.787-1.558-15.759-1.898-23.73-.283-6.98.142-13.903 1.133-20.785 1.586-12.516 7.136-22.993 17.67-30.242 4.375-3.058 8.877-6.103 13.507-8.85a108.4 108.4 0 0 0 24.565-20.87c2.974-3.454 6.627-6.413 10.535-8.947 5.819-3.498 12.402-3.965 18.93-3.993 16.041.17 32.097 1.77 48.04 3.2 7.051.58 14.088 1.43 21.125 2.293 4.361.496 8.509 1.968 12.304 4.135 3.256 1.826 6.031 4.474 7.744 7.872 1.6 2.973 3.356 5.819 4.829 8.778 4.233 9.005 11.751 16.155 20.954 20.035a122.7 122.7 0 0 0 32.579 9.896l9.557 1.346c1.416.113 2.79.65 3.851 1.585 1.062.935 1.813 2.138 2.124 3.582.623 2.889 1.091 5.777 1.289 8.623.439 6.853.863 13.847 1.161 20.686.311 6.697.325 13.379.354 20.062-.071 4.404-2.266 6.924-6.712 7.405-6.017.652-12.02 1.006-18.023 1.515-4.998.298-9.727.765-14.725 1.218l-.128-.156zm4.092-58.913-3.582-1.43c-5.098-1.983-10.35-3.682-15.419-5.947-11.822-4.8-21.465-13.819-26.916-25.344-1.09-2.365-2.478-4.46-3.709-6.697a15.5 15.5 0 0 0-4.673-5.352c-2.024-1.303-4.219-2.195-6.626-2.393-5.324-.864-10.676-1.444-16.028-2.01-6.357-.524-12.558-1.02-18.901-1.685a415 415 0 0 0-37.323-2.195c-2.959-.24-5.989.368-8.778 1.416s-5.338 2.69-7.348 4.8c-1.076 1.047-2.166 2.237-3.257 3.285-5.918 6.343-12.106 12.643-19.327 17.599-5.706 3.794-11.27 7.603-17.103 11.114A35.8 35.8 0 0 0 16.1 95.908c-2.945 4.729-4.645 9.996-5.112 15.631-.892 11.001-.948 22.087 0 33.103.27 2.01.524 4.021.935 5.904l16.934 1.373c.453-.382.608-.523.608-.523.029-.425.227-.978.411-1.53 2.251-8.481 7.688-15.857 15.036-20.657 8.694-5.536 18.067-7.334 27.922-4.403 4.445 1.217 8.665 3.553 11.963 6.654 3.441 3.115 5.947 7.164 7.575 11.554.92 2.633 1.7 5.252 2.62 8.028 18.505-.482 36.812-.27 54.893-.779 5.437-16.184 16.013-25.684 33.046-25.429 14.612.198 23.532 9.302 28.53 22.923 10.123-.453 20.133-1.345 30.172-2.379-.127-7.108-.142-13.932-.878-20.671-1.133-.085-1.982-.156-2.803-.51-2.662-.496-5.154-1.274-7.774-2.195-3.313-1.26-6.116-3.341-8.31-6.074s-3.639-5.975-4.064-9.43c-.382-2.307-.765-4.601-1.133-7.05l.156-.128zM84.429 156.748l.057-.708c1.472-14.513-11.993-23.702-22.937-21.904-10.945 1.812-17.826 7.787-21.224 18.152-1.331 4.148-1.274 8.707.1 12.799 3.256 10.633 14.271 14.937 22.172 13.875 10.477-1.274 21.096-11.355 21.69-22.101l.156-.128zm117.701-1.062c-.028-4.828-1.642-9.515-4.743-13.31-1.798-2.421-4.318-4.474-7.065-5.691a18.1 18.1 0 0 0-8.948-1.728c-5.706.241-11.03 2.79-14.924 7.023-7.121 7.235-8.566 19.751-3.539 27.694 3.907 6.145 9.429 9.713 16.551 9.586 11.794-.029 21.507-9.473 22.81-23.716l-.156.127zm37.662-41.952c.694-3.214.538-6.627-.198-9.812-3.087-.538-6.159-1.076-9.245-1.6l-1.841-.156c0 7.108 2.619 9.727 11.284 11.426zM305.573 117.104c-.311.396-.368.962-.538 1.373-.863 7.178-1.869 14.201-2.732 21.365-.977 8.58-2.096 17.019-3.087 25.599-.34 4.092-.665 8.184-1.005 12.275-.156 1.841-.595 3.781-1.02 5.593-.835 3.2-2.69 5.041-5.946 5.055a70.4 70.4 0 0 1-17.189-1.827 4.4 4.4 0 0 1-2.435-1.472c-.651-.765-1.147-1.657-1.204-2.662-.184-1.288-.354-2.591-.255-3.851.963-10.01 2.039-19.865 3.144-29.861l3.355-32.536.241-2.959c-1.6-1.26-3.313-1.119-5.012-1.26-5.933-.482-7.759-2.478-8.736-9.657l.255-3.1c1.26-15.518 2.393-31.064 3.497-46.455 1.104-13.55 1.784-27.127 2.747-40.691a35 35 0 0 1 1.472-7.547c.382-1.246 1.048-2.336 1.94-2.973.92-.779 2.237-1.232 3.37-1.289 2.435-.226 4.856-.311 7.249-.113 9.6.779 19.199 1.557 28.785 2.35 3.525.284 7.178.864 10.675 1.445 3.511.566 6.499 3.936 5.508 7.404a58 58 0 0 0-1.232 9.84c-1.373 16.793-2.732 33.585-4.389 50.363-1.048 12.842-2.506 25.514-3.837 38.327a17.5 17.5 0 0 1-.736 3.78c-.241 1.261-.907 2.337-1.94 2.974-1.062.764-2.223 1.104-3.483.849l-7.759-.637.255.312zm-31.871-15.108c6.187.793 11.78 1.954 17.571 2.28 5.791.467 11.454 2.35 17.741 2.01.354-2.676.991-5.182 1.203-7.716l5.777-65.583c.354-4.375.991-8.721 1.487-12.955l.495-6.074c-.41-.17-.679-.34-1.104-.368-9.855-1.09-19.709-2.18-29.436-3.115-2.393-.198-4.686-.099-6.966.142-2.619 30.469-4.531 60.853-6.456 91.379l-.284-.028zm13.72 12.913c-.864 7.178-1.713 14.06-2.563 20.955-.708 6.909-1.387 13.521-1.94 20.303s-2.109 13.606-2.265 20.842c2.421-.085 4.474.934 6.669.113.042-.567.085-1.133.269-1.543.963-10.152 1.925-20.162 3.03-30.3.92-7.745 2.251-15.447 3.313-23.305.17-2.124.92-4.332-.028-6.541l-6.768-.552z"/><path fill="#102185" d="m66.278 107.546-2.251-.184c-4.262-.056-6.343-2.364-5.862-6.583.41-3.37 1.133-6.867 1.827-10.223.764-4.205 1.529-8.254 2.293-12.46.496-2.52.836-5.04 1.473-7.546.269-1.543 1.218-2.747 2.28-3.653a6.17 6.17 0 0 1 4.219-1.218c4.12.057 8.226.1 12.346.156 5.82.043 11.511-.056 17.33 0 3.979.043 7.943.085 11.922.114 5.663.183 11.341.353 16.877.382 9.217.184 18.449.226 27.68.269 4.545.085 7.193 2.435 7.391 6.994.227 4.134.312 8.41.524 12.686.127 3.71.397 7.42.51 11.129.014 1.557.028 3.129-.099 4.686-.326 3.95-2.323 5.919-6.457 6.003-2.563.071-5.125.156-7.674.086-4.545-.085-8.934-.156-13.493-.1l-24.58.128c-3.695-.014-7.39-.029-11.213-.057l-26.109-.425c-2.987.043-5.975.085-8.806 0l-.128-.155zm38.045-31.135-31.206-.552c-1.317 7.42-2.591 14.414-3.908 21.847l7.25.028c6.824 0 13.634-.028 20.317-.042 2.265.042 3.016-.467 3.483-2.704.892-3.908 1.614-7.674 2.506-11.582.453-2.096.906-4.191 1.558-6.98zm49.838 21.253c-.269-7.122-.581-13.833-.878-20.672l-22.71-.283c-1.558 6.98-3.101 13.663-4.531 20.799zM119.94 76.539c-1.133-.085-1.841-.156-2.549-.07-.708.084-1.727.282-2.449.367-.977 3.328-1.827 6.81-2.408 10.322-.41 3.37-2.095 6.513-1.543 10.25l4.12.057a1110 1110 0 0 0 4.829-20.912zM304.879 88.914c-.623 7.617-7.079 13.634-14.541 12.884-7.32-.736-12.601-5.72-12.19-14.201.156-1.84.58-3.653 1.274-5.154.85-1.642 1.954-3.1 3.328-4.276 1.373-1.16 3.001-2.024 4.757-2.59 1.755-.567 3.469-.709 5.295-.567 1.699.141 3.37.552 4.856 1.387 1.501.694 2.832 1.799 4.007 3.172 1.176 1.232 1.912 2.718 2.478 4.46.581 1.614.722 3.327.581 5.026l.155-.127zm-10.604-.58c.141-1.7-.751-3.045-2.011-3.144-.849-.07-1.586.297-2.336.807a4.5 4.5 0 0 0-1.303 2.025c-.056.708.17 1.43.538 2.038.368.61 1.062.935 1.756 1.133.849.071 1.572-.156 2.336-.807.609-.524.963-1.345 1.034-2.194v.141zM282.141 55.952c.085-2.832 1.161-5.593 3.045-7.702s4.544-3.47 7.277-3.809c2.435-.226 4.814.113 7.164 1.005 2.195.892 4.205 2.478 5.763 4.305a13.1 13.1 0 0 1 2.803 9.174c-.269 3.243-1.94 6.372-4.389 8.453-5.791 4.786-12.516 3.667-17.415-.708-1.459-1.26-2.747-2.916-3.441-4.828a13.75 13.75 0 0 1-.793-5.89zm12.871-1.076-.85-.07c-.283-.029-.581.24-.736.367-.156.128-.453.383-.482.666s-.184.552-.07.85c-.057.707.028 1.415.41 1.882.383.595 1.062.935 1.756 1.133l.849.07a.76.76 0 0 0 .736-.367c.298-.113.454-.383.624-.666.028-.283.184-.552.354-.82l.084-1.134c.029-.283-.226-.722-.481-1.033-.255-.312-.524-.609-.793-.779a2.5 2.5 0 0 0-1.104-.368l-.312.255zM310.642 28.726c.042 6.4-6.429 12.686-14.046 12.063-3.384-.269-6.527-1.812-8.891-4.276-2.351-2.605-3.498-5.819-3.37-9.217.863-7.037 7.023-12.927 13.904-11.936 7.447 1.034 13.054 5.466 12.275 13.224l.128.156zm-10.591-.722.071-.85c.028-.283-.241-.58-.368-.736-.114-.297-.383-.453-.666-.481l-.849-.071c-1.699-.142-2.903.765-3.016 2.166-.043.567.184 1.147.58 1.614.383.453.793.78 1.36.822.708.056 1.429-.17 1.897-.553.594-.382.934-1.061.991-1.77z"/></svg>
